dotori-app/public/brand/dotori-og-image.svg

<svg viewBox="0 0 1200 630"><defs><linearGradient id="c" x1=".1" x2=".9" y1=".1" y2=".9"><stop offset="0%" stop-color="#aa8462"/><stop offset="100%" stop-color="#7a5438"/></linearGradient><linearGradient id="a" x1="0" x2="0" y1="0" y2="1"><stop offset="0%" stop-color="#faf7f2"/><stop offset="100%" stop-color="#f0ebe2"/></linearGradient><radialGradient id="b" cx=".4" cy=".32" r=".6"><stop offset="0%" stop-color="#dab080"/><stop offset="55%" stop-color="#c8956a"/><stop offset="100%" stop-color="#a87848"/></radialGradient></defs><path fill="url(#a)" d="M0 0h1200v630H0z"/><circle cx="200" cy="100" r="300" fill="#e8d5be" opacity=".08"/><circle cx="1000" cy="500" r="250" fill="#e8d5be" opacity=".06"/><g transform="translate(600 250)"><ellipse cy="6" fill="url(#b)" rx="66" ry="62"/><ellipse cx="-20" cy="-8" fill="#fff" opacity=".06" rx="20" ry="28" transform="rotate(-10 -20 -8)"/><path fill="url(#c)" d="M-62-30q0-48 62-52 62 4 62 52Q36-14 0-14t-62-16"/><path fill="none" stroke="#8a6440" stroke-width="1.1" d="M-46-44q26 8 46 8t46-8" opacity=".25"/><path fill="none" stroke="#8a6440" stroke-width=".8" d="M-52-54q28 10 52 10t52-10" opacity=".15"/><path fill="#7a5438" d="M-6-82q-3-18 1-25 5-3 10 0 4 7 1 25"/><path fill="none" stroke="#96704a" stroke-width=".8" d="M-1-100q1 6 2 14" opacity=".25"/><circle cx="-18" cy="6" r="5.4" fill="#4a3018"/><circle cx="18" cy="6" r="5.4" fill="#4a3018"/><circle cx="-20" cy="3" r="1.8" fill="#fff" opacity=".45"/><circle cx="16" cy="3" r="1.8" fill="#fff" opacity=".45"/><path fill="none" stroke="#4a3018" stroke-linecap="round" stroke-width="3.6" d="M-14 28q14 13 28 0"/><ellipse cx="-32" cy="21" fill="#d4907a" opacity=".16" rx="11" ry="5.6"/><ellipse cx="32" cy="21" fill="#d4907a" opacity=".16" rx="11" ry="5.6"/></g><text x="600" y="400" fill="#2d2418" font-family="'Plus Jakarta Sans','Pretendard',sans-serif" font-size="56" font-weight="800" letter-spacing="-2" text-anchor="middle">dotori</text><text x="600" y="445" fill="#a08060" font-family="'Pretendard','Noto Sans KR',sans-serif" font-size="22" font-weight="400" letter-spacing="3" text-anchor="middle">AI 어린이집 입소 전략</text><text x="600" y="560" fill="#c8956a" font-family="'Pretendard','Noto Sans KR',sans-serif" font-size="16" font-weight="400" opacity=".5" text-anchor="middle">우리 아이 어린이집, AI가 찾아줍니다</text></svg>

<svg xmlns="http://www.w3.org/2000/svg" width="1200" height="630" viewBox="0 0 1200 630">
  <defs>
    <radialGradient id="dog-body" cx="0.40" cy="0.32" r="0.60">
      <stop offset="0%" stop-color="#dab080"/>
      <stop offset="55%" stop-color="#c8956a"/>
      <stop offset="100%" stop-color="#a87848"/>
    </radialGradient>
    <linearGradient id="dog-cap" x1="0.1" y1="0.1" x2="0.9" y2="0.9">
      <stop offset="0%" stop-color="#aa8462"/>
      <stop offset="100%" stop-color="#7a5438"/>
    </linearGradient>
    <linearGradient id="dog-bgGrad" x1="0" y1="0" x2="0" y2="1">
      <stop offset="0%" stop-color="#faf7f2"/>
      <stop offset="100%" stop-color="#f0ebe2"/>
    </linearGradient>
  </defs>
  <!-- Background -->
  <rect width="1200" height="630" fill="url(#dog-bgGrad)"/>
  <!-- Subtle pattern -->
  <circle cx="200" cy="100" r="300" fill="#e8d5be" opacity="0.08"/>
  <circle cx="1000" cy="500" r="250" fill="#e8d5be" opacity="0.06"/>
  
  <!-- Symbol -->
  <g transform="translate(600,250)">
    <ellipse cx="0" cy="6" rx="66" ry="62" fill="url(#dog-body)"/>
    <ellipse cx="-20" cy="-8" rx="20" ry="28" fill="white" opacity="0.06" transform="rotate(-10 -20 -8)"/>
    <path d="M-62,-30 Q-62,-78 0,-82 Q62,-78 62,-30 Q36,-14 0,-14 Q-36,-14 -62,-30Z" fill="url(#dog-cap)"/>
    <path d="M-46,-44 Q-20,-36 0,-36 Q20,-36 46,-44" stroke="#8a6440" stroke-width="1.1" fill="none" opacity="0.25"/>
    <path d="M-52,-54 Q-24,-44 0,-44 Q24,-44 52,-54" stroke="#8a6440" stroke-width="0.8" fill="none" opacity="0.15"/>
    <path d="M-6,-82 Q-9,-100 -5,-107 Q0,-110 5,-107 Q9,-100 6,-82" fill="#7a5438"/>
    <path d="M-1,-100 Q0,-94 1,-86" stroke="#96704a" stroke-width="0.8" fill="none" opacity="0.25"/>
    <circle cx="-18" cy="6" r="5.4" fill="#4a3018"/>
    <circle cx="18" cy="6" r="5.4" fill="#4a3018"/>
    <circle cx="-20" cy="3" r="1.8" fill="white" opacity="0.45"/>
    <circle cx="16" cy="3" r="1.8" fill="white" opacity="0.45"/>
    <path d="M-14,28 Q0,41 14,28" stroke="#4a3018" stroke-width="3.6" stroke-linecap="round" fill="none"/>
    <ellipse cx="-32" cy="21" rx="11" ry="5.6" fill="#d4907a" opacity="0.16"/>
    <ellipse cx="32" cy="21" rx="11" ry="5.6" fill="#d4907a" opacity="0.16"/>
  </g>
  
  <!-- Wordmark -->
  <text x="600" y="400" text-anchor="middle" font-family="'Plus Jakarta Sans','Pretendard',sans-serif" font-weight="800" font-size="56" fill="#2d2418" letter-spacing="-2">dotori</text>
  <!-- Tagline -->
  <text x="600" y="445" text-anchor="middle" font-family="'Pretendard','Noto Sans KR',sans-serif" font-weight="400" font-size="22" fill="#a08060" letter-spacing="3">AI 어린이집 입소 전략</text>
  
  <!-- Subtle bottom line -->
  <text x="600" y="560" text-anchor="middle" font-family="'Pretendard','Noto Sans KR',sans-serif" font-weight="400" font-size="16" fill="#c8956a" opacity="0.5">우리 아이 어린이집, AI가 찾아줍니다</text>
</svg>
